X:245
T:Grenadier's March. (p)1686.PLFD1.245, The
M:4/4
L:1/4
Q:1/2=80
S:Playford, Dancing Master,7th Ed.,1686
O:England;London
H:1686.
Z:Chris Partington.
K:C
c2c/d/e/f/|gggf|ee/f/ g/f/e/d/|cGcd|
ege/f/g/a/|gGc/B/c/d/|/e/d/c/B/A>G|G4:|
|:d3d/d/|dBcd|Gg/f/ e/d/c/B/|Af/e/ d/c/B/A/|
G2A2|B-B/(A/4B/4)(cc/)(B/4c/4)|d3e|fAB>c|c4:|
